X: 32
T:Gan Ainm
R:Reel
S:Dessie Wilkinson, Belfast (flute)??
D:Session tape, Belfast 1982
M:4/4
Z:Bernie Stocks
K:G
FGAG FAD2 | AFDF G2AG | F2AG FAD2 | BdcA G4 :| A2AB cABG |
AGAB dABG |1 A2AB cABG | BdcA G4 :|2 A2dA BG~G2 | Addc d4 ||
<end>
<start>
